flaticon/essential/controls-2.svg

<svg xmlns="http://www.w3.org/2000/svg" width="32" height="32" viewBox="0 0 24 24">
    <path d="M5.777344 16L4 16 4 .445312C4 .199219 3.800781 0 3.554688 0 3.308594 0 3.109375.199219 3.109375.445312L3.109375 16 1.332031 16C1.089844 16 .890625 16.199219.890625 16.445312L.890625 21.777344C.890625 22.023438 1.089844 22.222656 1.332031 22.222656L3.109375 22.222656 3.109375 23.554688C3.109375 23.800781 3.308594 24 3.554688 24 3.800781 24 4 23.800781 4 23.554688L4 22.222656 5.777344 22.222656C6.023438 22.222656 6.222656 22.023438 6.222656 21.777344L6.222656 16.445312C6.222656 16.199219 6.023438 16 5.777344 16zM5.332031 21.332031L1.777344 21.332031 1.777344 16.890625 5.332031 16.890625zM14.222656 8.890625L12.445312 8.890625 12.445312.445312C12.445312.199219 12.246094 0 12 0 11.753906 0 11.554688.199219 11.554688.445312L11.554688 8.890625 9.777344 8.890625C9.53125 8.890625 9.332031 9.085938 9.332031 9.332031L9.332031 14.667969C9.332031 14.914062 9.53125 15.109375 9.777344 15.109375L11.554688 15.109375 11.554688 23.554688C11.554688 23.800781 11.753906 24 12 24 12.246094 24 12.445312 23.800781 12.445312 23.554688L12.445312 15.109375 14.222656 15.109375C14.46875 15.109375 14.667969 14.914062 14.667969 14.667969L14.667969 9.332031C14.667969 9.085938 14.46875 8.890625 14.222656 8.890625zM13.777344 14.222656L10.222656 14.222656 10.222656 9.777344 13.777344 9.777344zM22.667969 1.777344L20.890625 1.777344 20.890625.445312C20.890625.199219 20.691406 0 20.445312 0 20.199219 0 20 .199219 20 .445312L20 1.777344 18.222656 1.777344C17.976562 1.777344 17.777344 1.976562 17.777344 2.222656L17.777344 7.554688C17.777344 7.800781 17.976562 8 18.222656 8L20 8 20 23.554688C20 23.800781 20.199219 24 20.445312 24 20.691406 24 20.890625 23.800781 20.890625 23.554688L20.890625 8 22.667969 8C22.910156 8 23.109375 7.800781 23.109375 7.554688L23.109375 2.222656C23.109375 1.976562 22.910156 1.777344 22.667969 1.777344zM22.222656 7.109375L18.667969 7.109375 18.667969 2.667969 22.222656 2.667969zM22.222656 7.109375"/>
</svg>

<svg xmlns="http://www.w3.org/2000/svg" width="32" height="32" viewBox="0 0 24 24">
    <path d="M5.777 16H4V.445a.445.445 0 1 0-.89 0V16H1.331c-.242 0-.441.2-.441.445v5.332c0 .246.199.446.441.446h1.777v1.332a.445.445 0 1 0 .891 0v-1.332h1.777c.246 0 .446-.2.446-.446v-5.332c0-.246-.2-.445-.446-.445zm-.445 5.332H1.777v-4.441h3.555zm0 0M14.223 8.89h-1.778V.446a.445.445 0 1 0-.89 0v8.446H9.777a.442.442 0 0 0-.445.441v5.336c0 .246.2.441.445.441h1.778v8.446a.445.445 0 1 0 .89 0v-8.446h1.778a.442.442 0 0 0 .445-.441V9.332c0-.246-.2-.441-.445-.441zm-.446 5.333h-3.554V9.777h3.554zm0 0M22.668 1.777h-1.777V.445a.445.445 0 1 0-.891 0v1.332h-1.777c-.246 0-.446.2-.446.446v5.332c0 .246.2.445.446.445H20v15.555a.445.445 0 1 0 .89 0V8h1.778c.242 0 .441-.2.441-.445V2.223c0-.246-.199-.446-.441-.446zm-.445 5.332h-3.555V2.668h3.555zm0 0"/>
</svg>
